app/client/src/assets/icons/blueprintjs/16px/train.svg

<svg xmlns="http://www.w3.org/2000/svg" xml:space="preserve" viewBox="0 0 16 16"><path fill-rule="evenodd" d="M13 14h-1l1 2H3l1-2H3c-1.1 0-2-.9-2-2V2C1 .9 4.13 0 8 0s7 .9 7 2v10c0 1.1-.9 2-2 2zm-2-2h2v-2h-2v2zM9 7h4V3H9v4zm-6 5h2v-2H3v2zm0-5h4V3H3v4z" clip-rule="evenodd"/></svg>

<?xml version="1.0" encoding="utf-8"?>
<!-- Generator: Adobe Illustrator 18.0.0, SVG Export Plug-In . SVG Version: 6.00 Build 0)  -->
<svg version="1.1" id="Layer_1" xmlns="http://www.w3.org/2000/svg" xmlns:xlink="http://www.w3.org/1999/xlink" x="0px" y="0px"
	 viewBox="0 0 16 16" enable-background="new 0 0 16 16" xml:space="preserve">
<path id="train_1_" fill-rule="evenodd" clip-rule="evenodd" d="M13,14h-1l1,2H3l1-2H3c-1.1,0-2-0.9-2-2V2c0-1.1,3.13-2,7-2
	s7,0.9,7,2v10C15,13.1,14.1,14,13,14z M11,12h2v-2h-2V12z M9,7h4V3H9V7z M3,12h2v-2H3V12z M3,7h4V3H3V7z"/>
</svg>
